X:1
T:Mrs JAMES DUFF
T:Mrs JAMES DUFF
T:ISAAC COOPER
C:ISAAC COOPER
%%score 1 2
L:1/8
M:4/4
K:A
V:1 treble 
V:2 bass 
V:1
|: A,>CE>A (c>d)(e>c) | (d/f/).B Tc>A B/B/B B2 | A,>CE>A c>d e/f/g/a/ | e<cd>B [CA]2 [CA]2 :: %4
 e>ae>c d>fc>A | (B/f/).d c>A B/B/B B2 | e>ae>c d>fTc>A | E>GB>G A/A/A A2 | e>ae>c d>fc>A | %9
 (d/f/)d c>A (B>e)(g>b) |!f! (3.a.g.f!p! (3.e.d.c!f! (3.f.e.d!p! (3.c.B.A | %11
!f! E>GB>G A/A/A [CA]2 :| %12
V:2
|: A,,2 [A,C]2 [E,A,C]2 [A,C]2 | [D,F,A,]2 [E,A,]2 [E,B,D]2 [E,G,B,]2 | %2
 A,,2 [A,C]2 [E,A,C]2 [E,A,C]2 | E,2 [E,G,B,]2 [A,,A,]2 [A,,E,A,]2 :: %4
 A,,2 [E,A,C]2 [F,A,]2 [E,A,C]2 | [D,F,A,]2 [E,A,C]2 [E,B,D]2 [E,G,B,]2 | %6
 A,,2 [E,A,C]2 [F,A,]2 [E,A,]2 | E,2 [E,G,D]2 A,,2 [E,A,C]2 | A,,2 [E,A,C]2 [F,A,]2 [E,A,C]2 | %9
 [D,F,A,]2 [E,A,C]2 [E,B,D]2 [E,G,B,]2 | C,2 [E,A,]2 D,2 [F,B,]2 | %11
 E,2 [E,G,D]2 [A,C]2 [A,,E,A,]2 :| %12

